public/assets/icons/menu/icon_card_gray.svg

<svg width="188" height="192" viewBox="0 0 188 192" fill="none" xmlns="http://www.w3.org/2000/svg">
<path d="M148.207 48.08C146.64 43.36 142.253 40 137.083 40H50.9167C45.7467 40 41.4383 43.36 39.7933 48.08L23.5 96V160C23.5 164.4 27.025 168 31.3333 168H39.1667C43.475 168 47 164.4 47 160V152H141V160C141 164.4 144.525 168 148.833 168H156.667C160.975 168 164.5 164.4 164.5 160V96L148.207 48.08ZM53.6583 56H134.263L142.723 80.88H45.1983L53.6583 56ZM148.833 136H39.1667V96H148.833V136Z" fill="#606060"/>
<path d="M58.75 128C65.2393 128 70.5 122.627 70.5 116C70.5 109.373 65.2393 104 58.75 104C52.2607 104 47 109.373 47 116C47 122.627 52.2607 128 58.75 128Z" fill="#606060"/>
<path d="M129.25 128C135.739 128 141 122.627 141 116C141 109.373 135.739 104 129.25 104C122.761 104 117.5 109.373 117.5 116C117.5 122.627 122.761 128 129.25 128Z" fill="#606060"/>
</svg>

<svg width="188" height="192" fill="none" xmlns="http://www.w3.org/2000/svg"><path d="M148.207 48.08c-1.567-4.72-5.954-8.08-11.124-8.08H50.917c-5.17 0-9.479 3.36-11.124 8.08L23.5 96v64c0 4.4 3.525 8 7.833 8h7.834c4.308 0 7.833-3.6 7.833-8v-8h94v8c0 4.4 3.525 8 7.833 8h7.834c4.308 0 7.833-3.6 7.833-8V96l-16.293-47.92ZM53.658 56h80.605l8.46 24.88H45.198L53.658 56Zm95.175 80H39.167V96h109.666v40Z" fill="#606060"/><path d="M58.75 128c6.49 0 11.75-5.373 11.75-12s-5.26-12-11.75-12S47 109.373 47 116s5.26 12 11.75 12ZM129.25 128c6.489 0 11.75-5.373 11.75-12s-5.261-12-11.75-12-11.75 5.373-11.75 12 5.261 12 11.75 12Z" fill="#606060"/></svg>
